assets/img/phoneheader.svg

<svg width="23" height="30" viewBox="0 0 23 30" fill="none" xmlns="http://www.w3.org/2000/svg">
<path d="M6.57699 0.7188L5.28819 1.1076C4.1387 1.45386 3.11207 2.12135 2.32918 3.03147C1.5463 3.9416 1.03975 5.05646 0.869192 6.2448C0.334592 9.9672 1.52979 14.3196 4.41159 19.311C7.28619 24.2898 10.4506 27.4974 13.9336 28.9014C15.0527 29.3524 16.2778 29.4726 17.4632 29.2477C18.6486 29.0227 19.7445 28.4621 20.6206 27.6324L21.598 26.7072C22.2312 26.1074 22.6252 25.2981 22.7066 24.4297C22.7881 23.5613 22.5515 22.6929 22.0408 21.9858L19.6 18.6018C19.27 18.1449 18.8053 17.8028 18.2711 17.6233C17.7369 17.4439 17.1599 17.436 16.621 17.601L12.9292 18.7296L12.8338 18.7476C12.427 18.807 11.4892 17.9268 10.3192 15.9C9.09519 13.7796 8.83959 12.5394 9.17799 12.219L11.0572 10.4676C11.7434 9.82742 12.2121 8.98848 12.3974 8.06847C12.5827 7.14846 12.4753 6.19352 12.0904 5.3376L10.9024 2.6898C10.544 1.89223 9.90758 1.25236 9.11196 0.889657C8.31634 0.526958 7.41591 0.466226 6.57879 0.7188H6.57699ZM9.25899 3.4278L10.4488 6.0756C10.6802 6.58902 10.7449 7.16202 10.6338 7.7141C10.5227 8.26618 10.2415 8.76959 9.82959 9.1536L7.94679 10.9068C6.74079 12.0462 7.14039 13.9956 8.75859 16.8C10.2832 19.4388 11.6728 20.742 13.165 20.5152L13.3882 20.4684L17.1466 19.3218C17.3262 19.2666 17.5187 19.2691 17.6969 19.3288C17.875 19.3885 18.0301 19.5025 18.1402 19.6548L20.581 23.0388C20.8366 23.3924 20.955 23.8268 20.9143 24.2612C20.8736 24.6956 20.6764 25.1004 20.3596 25.4004L19.3822 26.3256C18.7564 26.9178 17.9738 27.318 17.1272 27.4785C16.2807 27.639 15.4059 27.5531 14.6068 27.231C11.5504 25.9998 8.66139 23.0712 5.97039 18.411C3.27399 13.74 2.18319 9.7674 2.65119 6.5004C2.77295 5.65135 3.13481 4.85479 3.69417 4.20455C4.25353 3.5543 4.98707 3.07746 5.80839 2.8302L7.09899 2.4414C7.51742 2.31567 7.96729 2.34641 8.36472 2.52791C8.76214 2.7094 9.07999 3.02924 9.25899 3.4278Z" fill="white"/>
</svg>

<?xml version="1.0" encoding="utf-8"?>
<!-- Generator: Adobe Illustrator 23.1.1, SVG Export Plug-In . SVG Version: 6.00 Build 0)  -->
<svg version="1.1" id="Слой_1" xmlns="http://www.w3.org/2000/svg" xmlns:xlink="http://www.w3.org/1999/xlink" x="0px" y="0px"
	 viewBox="0 0 23 30" style="enable-background:new 0 0 23 30;" xml:space="preserve">
<style type="text/css">
	.st0{fill:#FFFFFF;}
</style>
<path class="st0" d="M6.6,0.7L5.3,1.1c-1.1,0.3-2.2,1-3,1.9C1.5,3.9,1,5.1,0.9,6.2C0.3,10,1.5,14.3,4.4,19.3c2.9,5,6,8.2,9.5,9.6
	c1.1,0.5,2.3,0.6,3.5,0.3c1.2-0.2,2.3-0.8,3.2-1.6l1-0.9c0.6-0.6,1-1.4,1.1-2.3c0.1-0.9-0.2-1.7-0.7-2.4l-2.4-3.4
	c-0.3-0.5-0.8-0.8-1.3-1c-0.5-0.2-1.1-0.2-1.7,0l-3.7,1.1l-0.1,0c-0.4,0.1-1.3-0.8-2.5-2.8c-1.2-2.1-1.5-3.4-1.1-3.7l1.9-1.8
	c0.7-0.6,1.2-1.5,1.3-2.4s0.1-1.9-0.3-2.7l-1.2-2.6c-0.4-0.8-1-1.4-1.8-1.8C8.3,0.5,7.4,0.5,6.6,0.7L6.6,0.7z"/>
<path class="st0" d="M9.3,3.4l1.2,2.6c0.2,0.5,0.3,1.1,0.2,1.6c-0.1,0.6-0.4,1.1-0.8,1.4l-1.9,1.8C6.7,12,7.1,14,8.8,16.8
	c1.5,2.6,2.9,3.9,4.4,3.7l0.2,0l3.8-1.1c0.2-0.1,0.4-0.1,0.6,0c0.2,0.1,0.3,0.2,0.4,0.3l2.4,3.4c0.3,0.4,0.4,0.8,0.3,1.2
	c0,0.4-0.2,0.8-0.6,1.1l-1,0.9c-0.6,0.6-1.4,1-2.3,1.2c-0.8,0.2-1.7,0.1-2.5-0.2C11.6,26,8.7,23.1,6,18.4C3.3,13.7,2.2,9.8,2.7,6.5
	c0.1-0.8,0.5-1.6,1-2.3C4.3,3.6,5,3.1,5.8,2.8l1.3-0.4C7.5,2.3,8,2.3,8.4,2.5C8.8,2.7,9.1,3,9.3,3.4z"/>
</svg>
